src/assets/images/tiktok.svg

<?xml version="1.0" encoding="UTF-8" standalone="no" ?>
<!DOCTYPE svg PUBLIC "-//W3C//DTD SVG 1.1//EN" "http://www.w3.org/Graphics/SVG/1.1/DTD/svg11.dtd">
<svg xmlns="http://www.w3.org/2000/svg" xmlns:xlink="http://www.w3.org/1999/xlink" version="1.1" width="1080" height="1080" viewBox="0 0 1080 1080" xml:space="preserve">
<desc>Created with Fabric.js 5.2.4</desc>
<defs>
</defs>
<rect x="0" y="0" width="100%" height="100%" fill="transparent"></rect>
<g transform="matrix(1 0 0 1 540 540)" id="f07a1543-36de-46f0-a141-b5c741c7eae9"  >
<rect style="stroke: none; stroke-width: 1; stroke-dasharray: none; stroke-linecap: butt; stroke-dashoffset: 0; stroke-linejoin: miter; stroke-miterlimit: 4; fill: rgb(255,255,255); fill-rule: nonzero; opacity: 1; visibility: hidden;" vector-effect="non-scaling-stroke"  x="-540" y="-540" rx="0" ry="0" width="1080" height="1080" />
</g>
<g transform="matrix(1 0 0 1 540 540)" id="b8930611-c742-47af-8e74-fb408a992613"  >
</g>
<g transform="matrix(1 0 0 1 540 540)"  >
<rect style="stroke: none; stroke-width: 1; stroke-dasharray: none; stroke-linecap: butt; stroke-dashoffset: 0; stroke-linejoin: miter; stroke-miterlimit: 4; fill: rgb(255,255,255); fill-rule: nonzero; opacity: 1; visibility: hidden;" vector-effect="non-scaling-stroke"  x="-540" y="-540" rx="0" ry="0" width="1080" height="1080" />
</g>
<g transform="matrix(1 0 0 1 50 50)"  >
<rect style="stroke: none; stroke-width: 1; stroke-dasharray: none; stroke-linecap: butt; stroke-dashoffset: 0; stroke-linejoin: miter; stroke-miterlimit: 4; fill: rgb(255,255,255); fill-opacity: 0; fill-rule: nonzero; opacity: 1;" vector-effect="non-scaling-stroke"  x="-50" y="-50" rx="0" ry="0" width="100" height="100" />
</g>
<g transform="matrix(1 0 0 1 540 540)"  >
<rect style="stroke: none; stroke-width: 1; stroke-dasharray: none; stroke-linecap: butt; stroke-dashoffset: 0; stroke-linejoin: miter; stroke-miterlimit: 4; fill: rgb(255,255,255); fill-rule: nonzero; opacity: 1; visibility: hidden;" vector-effect="non-scaling-stroke"  x="-540" y="-540" rx="0" ry="0" width="1080" height="1080" />
</g>
<g transform="matrix(1 0 0 1 50 50)"  >
<rect style="stroke: none; stroke-width: 1; stroke-dasharray: none; stroke-linecap: butt; stroke-dashoffset: 0; stroke-linejoin: miter; stroke-miterlimit: 4; fill: rgb(255,255,255); fill-opacity: 0; fill-rule: nonzero; opacity: 1;" vector-effect="non-scaling-stroke"  x="-50" y="-50" rx="0" ry="0" width="100" height="100" />
</g>
<g transform="matrix(1 0 0 1 540 540)"  >
<rect style="stroke: none; stroke-width: 1; stroke-dasharray: none; stroke-linecap: butt; stroke-dashoffset: 0; stroke-linejoin: miter; stroke-miterlimit: 4; fill: rgb(255,255,255); fill-rule: nonzero; opacity: 1; visibility: hidden;" vector-effect="non-scaling-stroke"  x="-540" y="-540" rx="0" ry="0" width="1080" height="1080" />
</g>
<g transform="matrix(42.02 0 0 42.02 540 540)"  >
<path style="stroke: rgb(0,0,0); stroke-width: 0; stroke-dasharray: none; stroke-linecap: butt; stroke-dashoffset: 0; stroke-linejoin: miter; stroke-miterlimit: 4; fill: rgb(255,255,255); fill-rule: nonzero; opacity: 1;" vector-effect="non-scaling-stroke"  transform=" translate(-12, -12)" d="M 22.465 9.866 C 20.326 9.866 18.343 9.182 16.725 8.02 L 16.725 16.405 C 16.725 20.593 13.318000000000001 23.999000000000002 9.131 23.999000000000002 C 7.513 23.999000000000002 6.0120000000000005 23.489 4.779 22.623 C 2.8209999999999997 21.248 1.537 18.974 1.537 16.405 C 1.537 12.217000000000002 4.944 8.810000000000002 9.132 8.810000000000002 C 9.48 8.810000000000002 9.82 8.839000000000002 10.155 8.884000000000002 L 10.155 9.861000000000002 L 10.155 13.096000000000002 C 9.831 12.995000000000001 9.488999999999999 12.936000000000002 9.132 12.936000000000002 C 7.22 12.936000000000002 5.664 14.492 5.664 16.405 C 5.664 17.737000000000002 6.42 18.894000000000002 7.524 19.475 C 8.005 19.728 8.552 19.873 9.133 19.873 C 11.001 19.873 12.524999999999999 18.387 12.594999999999999 16.535 L 12.598 0 L 16.724 0 C 16.724 0.358 16.759 0.707 16.821 1.047 C 17.112000000000002 2.6189999999999998 18.045 3.968 19.338 4.811 C 20.238 5.398 21.312 5.741 22.464000000000002 5.741 L 22.464000000000002 9.866 z" stroke-linecap="round" />
</g>
</svg>

<?xml version="1.0" encoding="UTF-8"?>
<!-- Generator: Adobe Illustrator 26.0.1, SVG Export Plug-In . SVG Version: 6.00 Build 0)  -->
<svg xmlns="http://www.w3.org/2000/svg" xmlns:xlink="http://www.w3.org/1999/xlink" version="1.1" id="Capa_1" x="0px" y="0px" viewBox="0 0 24 24" style="enable-background:new 0 0 24 24;" xml:space="preserve" width="512" height="512">
<path d="M22.465,9.866c-2.139,0-4.122-0.684-5.74-1.846v8.385c0,4.188-3.407,7.594-7.594,7.594c-1.618,0-3.119-0.51-4.352-1.376  c-1.958-1.375-3.242-3.649-3.242-6.218c0-4.188,3.407-7.595,7.595-7.595c0.348,0,0.688,0.029,1.023,0.074v0.977v3.235  c-0.324-0.101-0.666-0.16-1.023-0.16c-1.912,0-3.468,1.556-3.468,3.469c0,1.332,0.756,2.489,1.86,3.07  c0.481,0.253,1.028,0.398,1.609,0.398c1.868,0,3.392-1.486,3.462-3.338L12.598,0h4.126c0,0.358,0.035,0.707,0.097,1.047  c0.291,1.572,1.224,2.921,2.517,3.764c0.9,0.587,1.974,0.93,3.126,0.93V9.866z"/>















</svg>
